packages/foundations/icons/Activities/Hammer.svg

<svg width="24" height="24" viewBox="0 0 24 24" fill="none" xmlns="http://www.w3.org/2000/svg">
<path d="M21.6243 6.00008L20.7583 5.50008C20.28 5.22393 19.6684 5.38781 19.3923 5.8661L17.3923 9.3302C17.1162 9.8085 17.28 10.4201 17.7583 10.6962L18.6244 11.1962C19.1026 11.4724 19.7142 11.3085 19.9904 10.8302L21.9904 7.3661C22.2665 6.88781 22.1026 6.27622 21.6243 6.00008Z" fill="#3D474D"/>
<path fill-rule="evenodd" clip-rule="evenodd" d="M11.6279 6.44606C11.4916 6.56928 11.3701 6.71342 11.2686 6.87724L3.88969 18.7828C3.87871 18.8006 3.86802 18.8184 3.85761 18.8365C3.30532 19.793 3.63307 21.0162 4.58966 21.5685L6.26674 22.5368C6.2848 22.5472 6.30299 22.5573 6.32133 22.5672C7.29469 23.0893 8.50704 22.7235 9.02918 21.7501L15.6503 9.40702C15.7137 9.28889 15.764 9.16716 15.8017 9.04352C15.6507 9.01166 15.5021 8.95577 15.3612 8.87443L13.6292 7.87443C13.5414 7.82378 13.4604 7.76535 13.3867 7.70041C13.2351 7.64813 13.0862 7.58168 12.9437 7.49943C12.6522 7.33109 12.3613 7.07833 12.0324 6.79249C11.9041 6.68103 11.7701 6.56454 11.6279 6.44606ZM13.8879 8.46161L12.9685 7.93085L5.58966 19.8365L7.26674 20.8047L13.8879 8.46161Z" fill="#3D474D"/>
<path d="M17.0263 7.96418L18.0263 6.23213L18.0314 6.23508C18.2274 5.77631 18.0541 5.23301 17.6112 4.97732L15.8792 3.97732C15.7982 3.93056 15.7134 3.89642 15.6284 3.87632C15.4993 3.78666 15.3549 3.69537 15.1937 3.60232C13.2452 2.47732 7.74519 2.47732 6.74519 4.20937C9.48736 4.20937 11.0425 5.28774 12.0633 6.14717C12.2416 6.05691 12.4321 5.99394 12.6281 5.96C11.7683 5.21239 10.3706 4.12201 8.09309 3.8013C8.17926 3.76649 8.27133 3.73283 8.36943 3.70055C8.99957 3.49317 9.79335 3.37063 10.6355 3.33398C11.475 3.29744 12.3421 3.34714 13.1119 3.47249C13.8903 3.59926 14.5317 3.79744 14.9437 4.03533C15.0944 4.12233 15.2269 4.20621 15.3431 4.28695L15.5133 4.36288C15.5478 4.37104 15.5874 4.38622 15.6292 4.41033L17.3612 5.41033C17.6004 5.5484 17.6823 5.8542 17.5442 6.09334L16.5442 7.82539C16.4062 8.06454 16.1004 8.14648 15.8612 8.00841L15.8318 7.99143C15.8758 8.1732 15.8945 8.36129 15.8863 8.55004C16.3035 8.64648 16.752 8.46554 16.9772 8.07539L17.0377 7.97075L17.0263 7.96418Z" fill="#3D474D"/>
<path fill-rule="evenodd" clip-rule="evenodd" d="M15.8429 3.4173C15.9426 3.44904 16.0387 3.49206 16.1292 3.54431L17.8612 4.54431C18.5434 4.93818 18.7992 5.78703 18.4665 6.4863L18.0314 6.23508C18.2274 5.77631 18.0541 5.23301 17.6112 4.97732L15.8792 3.97732C15.7982 3.93056 15.7134 3.89642 15.6284 3.87632C15.4993 3.78666 15.3549 3.69537 15.1937 3.60232C13.2452 2.47732 7.74519 2.47732 6.74519 4.20937C9.48736 4.20937 11.0425 5.28774 12.0633 6.14717C12.2416 6.05691 12.4321 5.99394 12.6281 5.96C11.7683 5.21239 10.3706 4.12201 8.09309 3.8013C8.17926 3.76649 8.27133 3.73283 8.36943 3.70055C8.99957 3.49317 9.79335 3.37063 10.6355 3.33398C11.475 3.29744 12.3421 3.34714 13.1119 3.47249C13.8903 3.59926 14.5317 3.79744 14.9437 4.03533C15.0944 4.12233 15.2269 4.20621 15.3431 4.28695L15.5133 4.36288C15.5478 4.37104 15.5874 4.38622 15.6292 4.41033L17.3612 5.41033C17.6004 5.5484 17.6823 5.8542 17.5442 6.09334L16.5442 7.82539C16.4062 8.06454 16.1004 8.14648 15.8612 8.00841L15.8318 7.99143C15.8758 8.1732 15.8945 8.36129 15.8863 8.55004C16.3035 8.64648 16.752 8.46554 16.9772 8.07539L17.0377 7.97075L17.4707 8.22075L17.4102 8.32539C17.0774 8.90194 16.4196 9.17391 15.8017 9.04352C15.6507 9.01166 15.5021 8.95577 15.3612 8.87443L13.6292 7.87443C13.5414 7.82378 13.4604 7.76535 13.3867 7.70041C13.2351 7.64813 13.0862 7.58168 12.9437 7.49943C12.6522 7.33109 12.3613 7.07833 12.0324 6.79249C11.9041 6.68103 11.7701 6.56454 11.6279 6.44606C10.6434 5.62539 9.27067 4.70937 6.74519 4.70937L6.31217 3.95937C6.65536 3.36495 7.3325 2.98904 8.05683 2.75066C8.80009 2.50606 9.69058 2.37415 10.592 2.33492C11.4961 2.29558 12.4318 2.34857 13.2726 2.48549C14.1047 2.621 14.8815 2.84469 15.4437 3.16931C15.5873 3.25221 15.7202 3.33481 15.8429 3.4173ZM17.4707 8.22075L18.4102 6.59334C18.4306 6.55812 18.4493 6.52241 18.4665 6.4863L18.8923 6.73213L17.8923 8.46418L17.4707 8.22075ZM17.0377 7.97075L17.9772 6.34334C17.9977 6.30792 18.0157 6.27178 18.0314 6.23508L18.0263 6.23213L17.0263 7.96418L17.0377 7.97075Z" fill="#3D474D"/>
<path d="M18.0314 6.23508C18.0157 6.27178 17.9977 6.30792 17.9772 6.34334L17.0377 7.97075L17.4707 8.22075L18.4102 6.59334C18.4306 6.55812 18.4493 6.52241 18.4665 6.4863L18.0314 6.23508Z" fill="#3D474D"/>
</svg>

<svg width="24" height="24" fill="none" xmlns="http://www.w3.org/2000/svg"><path d="M21.624 6l-.866-.5a1 1 0 00-1.366.366l-2 3.464a1 1 0 00.366 1.366l.866.5a1 1 0 001.366-.366l2-3.464A1 1 0 0021.624 6z" fill="#3D474D"/><path fill-rule="evenodd" clip-rule="evenodd" d="M11.628 6.446a2.001 2.001 0 00-.36.431L3.89 18.783a2 2 0 00.7 2.786l1.677.968.054.03a2 2 0 002.708-.817L15.65 9.407c.064-.118.114-.24.152-.363a1.499 1.499 0 01-.44-.17l-1.733-1a1.501 1.501 0 01-.242-.174 2.546 2.546 0 01-.443-.2c-.292-.169-.583-.422-.912-.708-.128-.111-.262-.227-.404-.346zm2.26 2.016l-.92-.531L5.59 19.837l1.677.968 6.62-12.343z" fill="#3D474D"/><path d="M17.026 7.964l1-1.732.005.003a1 1 0 00-.42-1.258l-1.732-1a.934.934 0 00-.25-.1 6.169 6.169 0 00-.435-.275c-1.949-1.125-7.449-1.125-8.449.607 2.742 0 4.298 1.079 5.318 1.938a2.01 2.01 0 01.565-.187c-.86-.748-2.257-1.838-4.535-2.159a4.46 4.46 0 01.276-.1c.63-.208 1.424-.33 2.267-.367.839-.037 1.706.013 2.476.138.778.127 1.42.325 1.832.563.15.087.283.171.4.252l.17.076a.436.436 0 01.115.047l1.732 1a.5.5 0 01.183.683l-1 1.732a.5.5 0 01-.683.183l-.03-.017c.045.182.064.37.055.559a1 1 0 001.091-.475l.06-.104-.01-.007z" fill="#3D474D"/><path fill-rule="evenodd" clip-rule="evenodd" d="M15.843 3.417c.1.032.196.075.286.127l1.732 1a1.5 1.5 0 01.605 1.942l-.435-.25a1 1 0 00-.42-1.259l-1.732-1a.934.934 0 00-.25-.1 6.169 6.169 0 00-.435-.275c-1.949-1.125-7.449-1.125-8.449.607 2.742 0 4.298 1.079 5.318 1.938a2.01 2.01 0 01.565-.187c-.86-.748-2.257-1.838-4.535-2.159a4.46 4.46 0 01.276-.1c.63-.208 1.424-.33 2.267-.367.839-.037 1.706.013 2.476.138.778.127 1.42.325 1.832.563.15.087.283.171.4.252l.17.076a.436.436 0 01.115.047l1.732 1a.5.5 0 01.183.683l-1 1.732a.5.5 0 01-.683.183l-.03-.017c.045.182.064.37.055.559a1 1 0 001.091-.475l.06-.104.434.25-.06.104a1.5 1.5 0 01-2.05.55l-1.732-1a1.501 1.501 0 01-.242-.175 2.546 2.546 0 01-.443-.2c-.292-.169-.583-.422-.912-.708-.128-.111-.262-.227-.404-.346-.985-.82-2.357-1.737-4.883-1.737l-.433-.75c.343-.594 1.02-.97 1.745-1.208.743-.245 1.634-.377 2.535-.416.904-.04 1.84.014 2.68.15.833.136 1.61.36 2.172.684.143.083.276.166.399.248zm1.628 4.804l.94-1.628c.02-.035.038-.07.055-.107l.426.246-1 1.732-.421-.243zm-.433-.25l.94-1.628c.02-.035.038-.071.053-.108l-.005-.003-1 1.732.012.007z" fill="#3D474D"/><path d="M18.031 6.235a1.005 1.005 0 01-.054.108l-.94 1.628.434.25.94-1.628c.02-.035.038-.07.055-.107l-.435-.25z" fill="#3D474D"/></svg>
